papirus/16x16/mimetypes/application-x-php.svg

<?xml version="1.0" encoding="UTF-8" standalone="no"?>
<svg
   xmlns:dc="http://purl.org/dc/elements/1.1/"
   xmlns:cc="http://creativecommons.org/ns#"
   xmlns:rdf="http://www.w3.org/1999/02/22-rdf-syntax-ns#"
   xmlns:svg="http://www.w3.org/2000/svg"
   xmlns="http://www.w3.org/2000/svg"
   xmlns:sodipodi="http://sodipodi.sourceforge.net/DTD/sodipodi-0.dtd"
   xmlns:inkscape="http://www.inkscape.org/namespaces/inkscape"
   id="svg2"
   height="16px"
   width="16px"
   version="1.1"
   viewBox="0 0 16 16"
   inkscape:version="0.91 r"
   sodipodi:docname="application-x-php.svg">
  <defs
     id="defs11" />
  <sodipodi:namedview
     pagecolor="#ffffff"
     bordercolor="#666666"
     borderopacity="1"
     objecttolerance="10"
     gridtolerance="10"
     guidetolerance="10"
     inkscape:pageopacity="0"
     inkscape:pageshadow="2"
     inkscape:window-width="1535"
     inkscape:window-height="876"
     id="namedview9"
     showgrid="false"
     inkscape:zoom="14.75"
     inkscape:cx="-3.9322034"
     inkscape:cy="8"
     inkscape:window-x="65"
     inkscape:window-y="24"
     inkscape:window-maximized="1"
     inkscape:current-layer="svg2" />
  <metadata
     id="metadata17">
    <rdf:RDF>
      <cc:Work
         rdf:about="">
        <dc:format>image/svg+xml</dc:format>
        <dc:type
           rdf:resource="http://purl.org/dc/dcmitype/StillImage" />
      </cc:Work>
    </rdf:RDF>
  </metadata>
  <path
     style="fill:#977dbf"
     inkscape:connector-curvature="0"
     d="M 2.75,1 C 2.33276,1 2,1.33276 2,1.75 l 0,13.5 C 2,15.667192 2.332808,16 2.75,16 l 10.5,0 C 13.6676,16 14,15.6676 14,15.25 L 14,5.5 9.875,5.125 9.5,1 Z"
     id="path5" />
  <path
     style="fill:#b88ff5"
     inkscape:connector-curvature="0"
     d="m 9.5,1 0,3.75 c 0,0.41256 0.33744,0.75 0.75,0.75 l 3.75,0 z"
     id="path7" />
  <path
     style="fill:#ffffff;fill-rule:evenodd"
     inkscape:connector-curvature="0"
     d="M 8.9984,8.2 C 8.77808,8.2 8.6,8.48596 8.6,8.70628 l 0,0.801564 c -0.00937,0.539064 0.909372,0.539064 0.9,0 l 0,-0.40788 0.6,0 0,1.39224 -0.989064,0.679692 c -0.10788,0.0744 -0.20628,0.192 -0.21096,0.3228 l 0,0.796872 c -0.00937,0.543744 0.909372,0.543744 0.9,0 l 0,-0.585936 1.021872,-0.679692 c 0.1068,-0.0696 0.1728,-0.19164 0.1776,-0.31824 l 0,-2.0016 c 0,-0.2202 -0.1776,-0.50616 -0.3984,-0.50616 z M 7.4,8.5 l -3,2.7 3,2.7 0,-1.2 L 5.9,11.2 7.4,9.7 Z M 9.35,13 C 9.101564,13 8.9,13.201564 8.9,13.45 8.9,13.698436 9.101564,13.9 9.35,13.9 9.5984,13.9 9.8,13.6984 9.8,13.45 9.8,13.2016 9.5984,13 9.35,13 Z"
     id="path9" />
  <path
     style="fill:#ffffff;fill-opacity:0.2"
     inkscape:connector-curvature="0"
     d="M 2.75,1 C 2.33276,1 2,1.33276 2,1.75 l 0,0.6 C 2,1.93276 2.33276,1.6 2.75,1.6 l 6.75,0 0,-0.6 z"
     id="path11" />
</svg>

<?xml version="1.0" encoding="UTF-8" standalone="no"?>
<svg id="svg2" xmlns:rdf="http://www.w3.org/1999/02/22-rdf-syntax-ns#" xmlns="http://www.w3.org/2000/svg" height="16px" width="16px" version="1.1" xmlns:cc="http://creativecommons.org/ns#" viewBox="0 0 16 16" xmlns:dc="http://purl.org/dc/elements/1.1/">
 <metadata id="metadata17">
  <rdf:RDF>
   <cc:Work rdf:about="">
    <dc:format>image/svg+xml</dc:format>
    <dc:type rdf:resource="http://purl.org/dc/dcmitype/StillImage"/>
   </cc:Work>
  </rdf:RDF>
 </metadata>
 <path id="path5" fill="#977dbf" d="m2.75 1c-0.4172 0-0.75 0.3328-0.75 0.75v13.5c0 0.417 0.3328 0.75 0.75 0.75h10.5c0.418 0 0.75-0.332 0.75-0.75v-9.75l-4.125-0.375-0.375-4.125z"/>
 <path id="path7" fill="#b88ff5" d="m9.5 1v3.75c0 0.41256 0.33744 0.75 0.75 0.75h3.75z"/>
 <path id="path9" fill-rule="evenodd" fill="#fff" d="m8.9984 8.2c-0.2203 0-0.3984 0.286-0.3984 0.5063v0.80156c-0.00937 0.53906 0.90937 0.53906 0.9 0v-0.40788h0.6v1.3922l-0.98906 0.67969c-0.10788 0.0744-0.20628 0.192-0.21096 0.3228v0.79687c-0.00937 0.54374 0.90937 0.54374 0.9 0v-0.58594l1.0219-0.67969c0.1068-0.0696 0.1728-0.19164 0.1776-0.31824v-2.0016c0-0.2202-0.1776-0.50616-0.3984-0.50616zm-1.5984 0.3l-3 2.7 3 2.7v-1.2l-1.5-1.5 1.5-1.5zm1.95 4.5c-0.2484 0-0.45 0.202-0.45 0.45s0.2016 0.45 0.45 0.45 0.45-0.202 0.45-0.45-0.2016-0.45-0.45-0.45z"/>
 <path id="path11" fill-opacity=".2" fill="#fff" d="m2.75 1c-0.4172 0-0.75 0.3328-0.75 0.75v0.6c0-0.4172 0.3328-0.75 0.75-0.75h6.75v-0.6z"/>
</svg>
